X:39
T:Sweetbriar
C:Larry Ungar
M:4/4
L:1/8
K:A
"A"A4 c3B | ABcA BAF2 | "F#m"FEFA BABc | "D"BAF2 "E"E4 | 
"A"A4 c3B | ABcA BAF2 | "D"FEFA BAF2 |1) "E"E8 :|2"E" E6 (e2 | 
|: "A"e2) f2 e2 f2 | e2 f2 cBA(e | "F#m"e2) f2 e2 f2 | cBA2 B2 (e2 | 
"D"e2) f2 e2 f2 | e2 f2 cBA2 | "E"cBA2 cBA2 | BABc BAF2 :|

%%newpage
%%scale 0.7

